file/ratpac.svg

<svg clip-rule="evenodd" fill-rule="evenodd" stroke-linejoin="round" stroke-miterlimit="1.41421" viewBox="0 0 560 400" xmlns="http://www.w3.org/2000/svg"><path d="m265.13 147.48c0-21.87-17.28-39.96-38.88-40.95h-43.11v31.23l50.04 50.04c18.18-4.41 31.95-20.79 31.95-40.32zm-82.26 81.99h82.08l-82.08-82.08z" fill-rule="nonzero" transform="matrix(2.43132 0 0 2.43132 -264.615 -208.461)"/></svg>

<?xml version="1.0" encoding="UTF-8" standalone="no"?>
<!DOCTYPE svg PUBLIC "-//W3C//DTD SVG 1.1//EN" "http://www.w3.org/Graphics/SVG/1.1/DTD/svg11.dtd">
<svg width="100%" height="100%" viewBox="0 0 560 400" version="1.1" xmlns="http://www.w3.org/2000/svg" xmlns:xlink="http://www.w3.org/1999/xlink" xml:space="preserve" xmlns:serif="http://www.serif.com/" style="fill-rule:evenodd;clip-rule:evenodd;stroke-linejoin:round;stroke-miterlimit:1.41421;">
    <g transform="matrix(2.43132,0,0,2.43132,-264.615,-208.461)">
        <path d="M265.13,147.48C265.13,125.61 247.85,107.52 226.25,106.53L183.14,106.53L183.14,137.76L233.18,187.8C251.36,183.39 265.13,167.01 265.13,147.48ZM182.87,229.47L264.95,229.47L182.87,147.39L182.87,229.47Z" style="fill-rule:nonzero;"/>
    </g>
</svg>
